.local/share/icons/Gruvbox-Plus-Dark/mimetypes/scalable/application-info.svg

<svg width="256" height="256" viewBox="0 0 256 256" fill="none" xmlns="http://www.w3.org/2000/svg">
<g opacity="0.4" filter="url(#filter0_f)">
<path fill-rule="evenodd" clip-rule="evenodd" d="M99.4032 15.5636H55.0839H55.0838C46.1734 15.5636 39 22.737 39 31.6474V224.654C39 233.564 46.1734 240.737 55.0838 240.737H55.1727H199.838H199.927C208.838 240.737 216.011 233.564 216.011 224.654L216.011 224.609L216.011 31.6474C216.011 22.737 208.838 15.5636 199.927 15.5636H155.608H99.4032Z" fill="#282828"/>
</g>
<path fill-rule="evenodd" clip-rule="evenodd" d="M99.4032 15H55.0839H55.0838C46.1734 15 39 22.1734 39 31.0838V224.09C39 233 46.1734 240.174 55.0838 240.174H55.1727H199.838H199.927C208.838 240.174 216.011 233 216.011 224.09L216.011 224.046L216.011 31.0838C216.011 22.1734 208.838 15 199.927 15H155.608H99.4032Z" fill="url(#paint0_linear)"/>
<path fill-rule="evenodd" clip-rule="evenodd" d="M130.969 82.652C130.969 74.5928 137.929 68 145.988 68C153.318 68 158.629 72.9416 158.629 80.4572C158.629 88.8872 151.669 95.1164 143.428 95.1164C135.916 95.1164 130.969 90.1676 130.969 82.6532V82.652ZM121.078 118.744C122.362 115.452 120.715 113.802 119.246 113.802C112.468 113.802 103.675 129.741 100.383 129.741C99.0992 129.741 98 128.456 98 127.357C98 124.058 106.058 116.367 108.442 113.983C115.767 107.022 125.293 101.709 135.915 101.709C143.792 101.709 152.221 106.47 145.623 124.245L132.435 159.969C131.337 162.717 129.324 167.301 129.324 170.23C129.324 171.51 130.052 172.796 131.518 172.796C137.012 172.796 147.088 157.22 149.655 157.22C150.571 157.22 151.849 158.318 151.849 159.968C151.849 165.28 130.422 188 111.921 188C105.324 188 100.746 184.888 100.746 177.927C100.746 169.132 106.974 154.11 108.259 150.991L121.078 118.744Z" fill="#ebdbb2"/>
<defs>
<filter id="filter0_f" x="23.8778" y="0.441412" width="207.255" height="255.418" filterUnits="userSpaceOnUse" color-interpolation-filters="sRGB">
<feFlood flood-opacity="0" result="BackgroundImageFix"/>
<feBlend mode="normal" in="SourceGraphic" in2="BackgroundImageFix" result="shape"/>
<feGaussianBlur stdDeviation="7.5611" result="effect1_foregroundBlur"/>
</filter>
<linearGradient id="paint0_linear" x1="39" y1="15" x2="39" y2="240.174" gradientUnits="userSpaceOnUse">
<stop offset="1e-07" stop-color="#fe8019"/>
<stop offset="1" stop-color="#d65d0e"/>
</linearGradient>
</defs>
</svg>

<svg width="256" height="256" fill="none" version="1.1" viewBox="0 0 256 256" xmlns="http://www.w3.org/2000/svg">
  <path d="m99.4 15h-44.32c-8.91 0-16.08 7.173-16.08 16.08v193c0 8.91 7.173 16.08 16.08 16.08h144.8c8.911 0 16.08-7.174 16.08-16.08v-0.044-193c0-8.91-7.173-16.08-16.08-16.08h-100.5z" clip-rule="evenodd" fill="url(#paint0_linear)" fill-rule="evenodd"/>
  <path d="m131 82.65c0-8.059 6.96-14.65 15.02-14.65 7.33 0 12.64 4.942 12.64 12.46 0 8.43-6.96 14.66-15.2 14.66-7.512 0-12.46-4.949-12.46-12.46v-0.0012zm-9.891 36.09c1.284-3.292-0.363-4.942-1.832-4.942-6.778 0-15.57 15.94-18.86 15.94-1.284 0-2.383-1.285-2.383-2.384 0-3.299 8.058-10.99 10.44-13.37 7.325-6.961 16.85-12.27 27.47-12.27 7.877 0 16.31 4.761 9.708 22.54l-13.19 35.72c-1.098 2.748-3.111 7.332-3.111 10.26 0 1.28 0.728 2.566 2.194 2.566 5.494 0 15.57-15.58 18.14-15.58 0.916 0 2.194 1.098 2.194 2.748 0 5.312-21.43 28.03-39.93 28.03-6.597 0-11.18-3.112-11.18-10.07 0-8.795 6.228-23.82 7.513-26.94l12.82-32.25z" clip-rule="evenodd" fill="#ebdbb2" fill-rule="evenodd"/>
  <defs>
    <linearGradient id="paint0_linear" x1="39" x2="39" y1="15" y2="240.2" gradientUnits="userSpaceOnUse">
      <stop stop-color="#fe8019" offset="1e-7"/>
      <stop stop-color="#d65d0e" offset="1"/>
    </linearGradient>
  </defs>
</svg>
